X: 1
T:Rose of the Valley -- Reel
M:2/4
L:1/16
R:reel
B:Ryan's Mammoth Collection
Z:Contributed by Ray Davies  ray:davies99.freeserve.co.uk
K:A
ved|cBAc BAGB|Aceg aefe|cBAc BAGB|Aceg a2(ed)|
cccA BBBG|Aceg aefe|cBAc BAGB|AECE A2::
ef|{a}gfga gfed|cdef =gfge|{b}a^gab afef|=gedB A2(ef)|
{a}^gfga gfed|cdef =gfge|a^gab afef|aedB A2:|
